X: 65
T: No_69_The_Mockingbird_Speaks.krn
N: Derived from No_69_The_Mockingbird_Speaks.krn
%%abc-version 2.0
%%abcx-abcm2ps-target-version 5.9.1 (29 Sep 2008)
%%abc-creator hum2abc beta
%%abcx-conversion-date 2019/03/15 08:25:35
%%humdrum-veritas 2442345874
%%humdrum-veritas-data 1610549976
%%linebreak <none>
%%barnumbers 0
L: 1/8
M: 2/4
K: G clef=bass
[K:clef=bass][M:2/4]G,/E,/G, G,E,/D,/ | 
(D,/B,,/)B,,/B,,/ B,, z | 
[M:3/4]G,/E,/G, G,E,/D,/ D,/D,/B,, | 
[M:2/4]E,E, (E,B,,) | 
(B,,G,,/)G,,/ G,, z | 
(E,/B,,)G,,/ G,,/G,,/G,, | 
B,,G,,/G,,/ G,,G,,3//G,,// | 
[M:3/4]D,D,/D,/ (E,/D,/)(D,/B,,/) D,/D,B,,/ | 
[M:6/8](D,B,,)D, D,B,,G,, | 
G,,G,,G,, B,,G,,G,, | 
[M:7/8]G,,G,,B,,G,,G,, z G,, | 
[M:6/8]B,,B,,D, B,,G,,G,,/G,,/ | 
[M:2/4]B,,3/D,/ B,,B,, | 
(B,,2G,,)G,,/G,,/ | 
B,,3/G,,/ G,, z | 
[M:3/4]B,,B,, B,,/G,,G,,/ G,,B,, | 
B,,/(B,,G,,/) G,,(B,,/G,,/) G,, z | 
D,D,/B,,/ D, (3B,,/B,,/G,,/ G,,G,, | 
[M:2/4]B,,B,, B,,/G,,G,,/ | 
B,,G,,/G,,/ G,, z | 
[M:3/4]B,,/G,,G,,/ G,,G,, (B,,/G,,/)G,, | 
[M:2/4]B,,3/G,,/ G,, z | 
G,,/G,,3/ (3G,,/G,,/G,,/ z | 
 [K:E] G,3/G,/ (B,3/G,/) | 
(3B,A,G,G,2 | 
(3B,A,G, B,3/G,/ | 
(3B,A,G, G, z | 
G,/E,3/ G,3/E,/ | 
Z7 |]  



